svg/crop_landscape.svg

<svg xmlns="http://www.w3.org/2000/svg" viewBox="0 0 24 24"><path d="M19 17H5V7h14m0-2H5a2 2 0 0 0-2 2v10a2 2 0 0 0 2 2h14a2 2 0 0 0 2-2V7a2 2 0 0 0-2-2"/></svg>

<?xml version="1.0" encoding="UTF-8"?><!DOCTYPE svg PUBLIC "-//W3C//DTD SVG 1.1//EN" "http://www.w3.org/Graphics/SVG/1.1/DTD/svg11.dtd"><svg xmlns="http://www.w3.org/2000/svg" xmlns:xlink="http://www.w3.org/1999/xlink" version="1.1" id="mdi-crop-landscape" width="24" height="24" viewBox="0 0 24 24"><path d="M19,17H5V7H19M19,5H5A2,2 0 0,0 3,7V17A2,2 0 0,0 5,19H19A2,2 0 0,0 21,17V7C21,5.89 20.1,5 19,5Z" /></svg>
